X: 6069
T: Cappatagle, The
R: waltz
M: 3/4
K: Gmajor
|:(3GFE|D2 BA Bd-|dc cB ce|d2 d^c d2|e2f2a2|
g4(3gfe|f3e ed|de dc AF|de dc AF|
D2 BA Bd-|dc cB ce|d2 d^c d2|e2f2a2|
g4(3gfe|f3e ed|de dc AF|1 G4:|2 G4G2||
|:d4(3ed^c|d4(3ed^c|de dc AF|G2B2d2|
g4(3agf|g4(3agf|ga gf ed|A2B2c2|
d4(3ed^c|d4(3ed^c|de dc AF|G2B3g|
f3A Ae|f3e ed|de dc AF|1 G2 GA Bc:|2 G4||

